!!!COM: Johann Sebastian Bach
!!!OTL: Das musikalische Opfer
!!!system-decoration: [(s1,s2,s3)]
**kern	**kern	**kern
*part3	*part2	*part1
*staff3	*staff2	*staff1
*clefF4	*clefG2	*clefG2
*k[b-e-a-]	*k[b-e-a-]	*k[b-e-a-]
*M3/4	*M3/4	*M3/4
8CL	8.gL	2.r
8C	.	.
.	16eeJ	.
.	8qcc	.
8D	4.bn	.
8D	.	.
8D	.	.
8DJ	8cc	.
=2	=2	=2
(>8E	4.cc	2.r
8E	.	.
8En	.	.
8E	(<16b-L	.
.	16aJ	.
.	16qcc	.
8E	8bL	.
8E)	16a	.
.	16gJ)	.
=3	=3	=3
(>8FL	16aL	8.ccL
.	16g	.
8F	16a	.
.	16ccJ	16aaJ
.	.	8qff
8G	16bL	4.een
.	16dd-	.
8G	16dd	.
.	16ccJ	.
8G	16ccL	.
.	16b	.
8GJ)	16b	8ff
.	16ccJ	.
=4	=4	=4
8AL	16ccL	4.ff
.	16bn	.
8AJ	16cc	.
.	16eeJ	.
8BBnL	2ddn	.
8BBn	.	(>16ee-L
.	.	16ddJ
.	.	8qgg
8BBn	.	8ffL
8BBnJ	.	16ee
.	.	16ddJ)
=5	=5	=5
.	.	16qcc
(<8GGL	8.dddL	16bL
.	.	16an
8GG	.	8gJ
.	16ddJ	.
.	(<32qeeL	.
.	32qff	.
.	32qggJ)	.
8AAn	4.ff	4r
8AA	.	.
8BBn	.	4r
8BBnJ)	8ee	.
=6	=6	=6
(<8CL	16eeL	8.ggL
.	16ff	.
8C	16ee	.
.	16dd'J	16gJ
.	.	32qanL
.	.	32qb
.	.	32qccJ
8D	16ddL	4.b
.	16ee	.
8D	16dd	.
.	16cc'J	.
8E	4cc	.
8EJ)	.	8an
=7	=7	=7
8FF#L	8.ccL	16anL
.	.	16b
8AAn	.	16a
.	16eJ	16g'J
8C	4e	16gL
.	.	16a
8BB	.	16g
.	.	16f#'J
8C	8.eL	8.fL
8AAJ	.	.
.	16eeJ	16F#J
=8	=8	=8
8BL	8.ddL	8.ggL
8G	.	.
.	16bbJ	16gJ
8DD	4gg	4b
8D	.	.
8DD	8.ff#L	8.anL
8DDJ	.	.
.	16ggJ	16gJ
=9	=9	=9
8GGL	16ggL	4g
.	16bb	.
8GG	16cc#	.
.	16ddJ	.
8B	16r	2dd
.	16ggL	.
8F	16an	.
.	16bJ	.
8B	16r	.
.	16ddL	.
8GGJ	16f#	.
.	16gJ	.
=10	=10	=10
8EEL	16g'L	16ddL
.	16dd	16g
8E	16bbn	16ffn
.	16ccJ	16eeJ
8D	(>8aa-L	16r
.	.	16bnL
8D	8ff	16aa-
.	.	16ggJ
8G	8bn	16r
.	.	16ddL
8GJ	8fJ)	16ccc
.	.	16bbnJ
=11	=11	=11
.	16qf	.
8CL	(<8eL	16cccL
.	.	16eee
8C	16d	16ff#
.	16cJ)	16ggJ
8E	2g	16r
.	.	16cccL
8G	.	16dd
.	.	16eeJ
8E	.	16r
.	.	16ggL
8CJ	.	16bn
.	.	16ccJ
=12	=12	=12
8AAL	16gL	16ccL
.	16c	16bb-
8A	16b	16een
.	16aJ	16ffJ
8G	16r	(8ddd-L
.	16enL	.
8G	16dd-	8bb
.	16ccJ	.
8c	16r	8een
.	16gL	.
8cJ	16ff	8bJ)
.	16eenJ	.
=13	=13	=13
(8FL	4ff	8.aL
8F	.	.
.	.	16aaJ
.	.	8qff
8G	4r	4.een
8G	.	.
8G	4r	.
8GJ)	.	8ff
=14	=14	=14
8AL	2.r	4.ff
8A	.	.
(>8BBn	.	.
8BB	.	(>16ee-L
.	.	16ddJ
.	.	16qff
8BB	.	8ffL
8BBJ)	.	16ee
.	.	16ddJ)
=15	=15	=15
8CL	8.gL	16eeL
.	.	16dd
8C	.	16ee
.	16eeJ	16ggJ
.	8qcc	.
(<8D	4.b	16ffL
.	.	16aa
8D	.	16aa
.	.	16ggJ
8D	.	16ggL
.	.	16ff
8DJ)	8cc	16ff
.	.	16ggJ
=16	=16	=16
8EL	4.cc	16ggL
.	.	16ff#
8E	.	16gg
.	.	16cccJ
.	.	8qffn
(<8FF#	.	2ee
8FF	(<16bnL	.
.	16anJ	.
.	16qdd	.
8FF	8ccL	.
8FFJ)	16b	.
.	16aJ)	.
=17	=17	=17
8GGL	4bn	16dd'L
.	.	16g
8G	.	16bn
.	.	16ddJ
8D	4r	16ff'L
.	.	16aa
8Bn	.	16gg
.	.	16ffJ
8GG	4r	16ddd'L
.	.	16aa
8BBJ	.	16gg
.	.	16ffJ
=18	=18	=18
8CL	16r	8.eeL
.	16cL	.
8c	16e	.
.	16gJ	16bb-J
.	.	8qff
8G	16b-'L	4.een
.	16dd-	.
8En	16cc	.
.	16bJ	.
8C	16gg'L	.
.	16dd	.
8EJ	16cc	8gg
.	16bJ	.
=19	=19	=19
8FFL	8.aL	16ggL
.	.	16f
8F	.	16a
.	16eeJ	16ccJ
.	8qb	.
8C	4an	16ee-'L
.	.	16gg
8AAn	.	16ff
.	.	16eeJ
8FF	8r	16ccc'L
.	.	16gg
8AAJ	8cc	16ff
.	.	16eeJ
=20	=20	=20
8BBL	16ccL	8.ddL
.	16B	.
8B	16d	.
.	16fJ	16aa-J
.	.	8qff
8F	16aa-L	2dd
.	16cc	.
8D	16b	.
.	16aJ	.
8BB	16ff'L	.
.	16cc	.
8DJ	16b	.
.	16aJ	.
=21	=21	=21
16BBnL	8.gL	8.ddL
16GG	.	.
16BB	.	.
16DJ	16aJ	16ffJ
.	8qe	.
.	.	8qcc
16FL	4.d	4.bbn
16A	.	.
16A	.	.
16GJ	.	.
16GL	.	.
16F	.	.
16F	8bn	8aa
16EJ	.	.
=22	=22	=22
(<8EL	8.ccL	8.ggL
8F	.	.
.	16aJ	16ccJ
8G	4e	4cc
8G	.	.
8GG	8.dnLT	8.bnLT
8GGJ)	.	.
.	16cJ	16ccJ
=23	=23	=23
(<8AAL	(<16cL	4cc
.	16e	.
8AA	16g	.
.	16ccJ)	.
8AA	16ffL	8r
.	16aa	.
8AA	16aa	8cc
.	16ggJ	.
.	.	8qdd-
8AA	16ggL	8.ccLT
.	16ff	.
8AAJ)	16ff	.
.	16eenJ	32b-
.	.	32ccJ
=24	=24	=24
8GGL	4een	(>16dd-L
.	.	16b
8GG	.	16en
.	.	16ggJ)
8GG	8r	16bbL
.	.	16ddd
8GG	8en	16ddd
.	.	16cccJ
8GG	8.eLT	16cccL
.	.	16bb
(8GGJ)	.	16bb
.	32d	16aaJ
.	32eJ	.
=25	=25	=25
8.CL	[8ddL	8eeL
.	(>32dd_	(>32ff
.	32cc	32ee
16cJ	32bn	32dd
.	32ccJ)	32eeJ)
8qG	.	.
4.F#	4.ccT	4.eeT
8G	8bn	8dd
=26	=26	=26
4G	16bnL	16ddL
.	16g	16f
.	16b	8g'J
.	16ddJ	.
8r	16ffL	8r
.	16aa	.
8GGL	16aa	8bn
.	16ggJ	.
8GG	16ggL	8.bT
.	16ff	.
8GGJ	16ff	.
.	16eeJ	32anL
.	.	32bJ
=27	=27	=27
4GG	16eeL	16ccL
.	16bn	16d
.	8cc'J	16e
.	.	16gJ
8r	8r	16ccL
.	.	16ee
8GL	8f#	16ee
.	.	16ddJ
8G	8.fLT	16ddL
.	.	16cc
8GJ	.	16cc
.	32en	16b#J
.	32fJ	.
=28	=28	=28
16GL	2g	2bn
16GG	.	.
16Bn	.	.
16DJ	.	.
16FL	.	.
16A	.	.
16A	.	.
16GJ	.	.
16GL	4r	4r
16F	.	.
16F	.	.
16EnJ	.	.
=29	=29	=29
16EnL	2.r	8.ccL
16C	.	.
16E	.	.
16GJ	.	16bb-J
.	.	8qaa
16BL	.	4.ggT
16d-	.	.
16d	.	.
16cJ	.	.
16cL	.	.
16B	.	.
16A	.	8aa
16GJ	.	.
=30	=30	=30
16FL	8.fL	(>2.aa
16FF	.	.
16AA	.	.
16CJ	16eeJ	.
.	8qdd	.
16E-L	4.ccT	.
16G	.	.
16G	.	.
16fJ	.	.
16FL	.	.
16E	.	.
16D	8dd	.
16CJ	.	.
=31	=31	=31
8BBL	(>2.dd	16aaL)
.	.	16b
8BB	.	16dd
.	.	16ffJ
8BB	.	16aaL
.	.	16cc
8BB	.	16ccc
.	.	16bbJ
8BB	.	16bbL
.	.	16aa
8BBJ	.	16aa
.	.	16ggJ
=32	=32	=32
8EL	16ddL))	(>2.gg)
.	16e	.
8E	16g	.
.	16bJ	.
8E	16dd-L	.
.	16ff	.
8E	16ff	.
.	16eeJ	.
8E	16eeL	.
.	16dd	.
8EJ	16dd	.
.	16ccJ	.
=33	=33	=33
4AA	8ccL	16ggL)
.	.	(>16ccc
.	(>(>8c	16een
.	.	16fffJ)
4A	8ff	16r
.	.	(>16aaL
.	8aa	16bn
.	.	16ccJ)
8r	8cc	16r
.	.	(>16ffL
8C	8ee-J)	16g
.	.	16aJ)
=34	=34	=34
4BB	16ddL	8aL
.	(<16B	.
.	16g	(>(>8dd
.	16fJ	.
4B	16r	8ff
.	(<16dL	.
.	16cc	8aaJ))
.	16bJ)	.
8r	16r	16cccL
.	(<16fL	16aa
8A	16ee	16gg
.	16dJ)	16ffJ
=35	=35	=35
8GL	8.eeL	8.bbL
8A	.	.
.	16aJ	16ccJ
.	8qg	.
.	.	8qee
8B	4.fT	4.ddT
8B	.	.
8BB	.	.
8BBJ	8e	8ee
=36	=36	=36
8EEL	2.e	2.ee
8E	.	.
8G	.	.
8F	.	.
8E	.	.
8DJ	.	.
=37:|!	=37:|!	=37:|!
(>8EL	2.r	8.ggL
8E	.	.
.	.	16bJ
.	.	32qccL
.	.	32qdd-
.	.	32qeeJ
8F	.	4.dd-T
8F	.	.
8G	.	.
8GJ)	.	8cc
=38	=38	=38
(>8AL	2.r	16ccL
.	.	16dn
8A	.	16e
.	.	16gJ
8A	.	(>16aL
.	.	16cc
8A	.	16ee
.	.	16ddJ)
8G-	.	4ee
8GJ)	.	.
=39	=39	=39
8FL	8.aanL	16eeL
.	.	16ccc
8F	.	16dd
.	16ccJ	16eeJ
.	32qddL	.
.	32qee-	.
.	32qffJ	.
8Gn	4.eeT	16r
.	.	16ggL
8G	.	16an
.	.	16bJ
8An	.	16r
.	.	16eeL
8AJ	8dd	16f
.	.	16g-J
=40	=40	=40
8BL	16ddL	8fL
.	16en	.
8B	16f	8ee-
.	16anJ	.
8B	(>16bL	8dd
.	16dd	.
8B	16ff	8aa-
.	16eenJ)	.
8A-	4ff	8bn
8AJ	.	8ccJ
=41	=41	=41
8GL	16ffL	8bnL
.	16ddd	.
8G	16een	8gJ
.	16ffJ	.
8D	16r	8r
.	16aaL	.
8D	16bn	8ff
.	16ccJ	.
8Bn	16r	(>8.ddLT
.	16ffL	.
8BJ	16g	.
.	16a-J	32cc
.	.	32ddJ)
=42	=42	=42
(<8CL	4g	2.ee
8C	.	.
8BB-	8r	.
8BB	8cc	.
8AAn	(<8.f#LT	.
8AAJ)	.	.
.	32en	.
.	32eJ)	.
=43	=43	=43
(<8BBL	4.g	8ee
8BB	.	4dd
8EE	.	.
8EE	8G	16ccL
.	.	16bJ
8C	(<16cL	(<16an
.	16B	16g
8CJ)	16An	16f#
.	16BJ)	16g)
=44	=44	=44
16DL	4An	8f#L
16DD	.	.
16FF#	.	8ee-
16AnJ	.	.
16CL	8r	8dd
16E	.	.
16E	8aanL	8ff#
16DJ	.	.
16DL	8bb	8ggn
16C	.	.
16BB	8ccJ	8aanJ
16AAJ	.	.
=45	=45	=45
4FF	16f'L	8aaL
.	16aa	.
.	16cc	8a
.	16dd-J	.
4F	16r	8dd-
.	16ffL	.
.	16g	8ff
.	16aJ	.
8r	16r	8aa
.	16dd-L	.
8AA	16en	8dddJ
.	16fJ	.
=46	=46	=46
4GG	8fL	16bbnL
.	.	16g
.	8bn	16ee
.	.	16ddnJ
4G	8dd	16r
.	.	16bnL
.	8ffJ	16aa
.	.	16ggJ
8r	16aa'L	16r
.	16ff	16ddL
8F	16ee	16ccc
.	16ddJ	16bbnJ
=47	=47	=47
8EL	8.ggL	8.cccL
8F	.	.
.	16anJ	16ffJ
.	8qcc	.
.	.	8qee
8G	4.bn	4.dd
8G	.	.
8GG	.	.
8GGJ	8cc	8cc
=	=	=
*-	*-	*-
!!!RDF**kern: > = above
!!!RDF**kern: < = below
